X:236
T: O'er the Moor Amang the Heather
N: O'Farrell's Pocket Companion v.3 (Sky ed. p.114)
N: "Scotch"
M: C
L: 1/8
R: hornpipe % strathspey
Q: 260
K: G
D<GG>A G>AGD| EAA>B c>BAG| Bdd>e ga {a}b>a| g>edB A>BAG :|
G>gg>a g>agd| e>aa>c' a>bag| b>age dg/a/ b>a| ge e/d/c/B/ A>BAG :|
